X:178 
T:Reel of Darragh, The  
S:Donnelly < W.Jones
F:file ID: cre.4/178reel_d
B:CRE4.149 (Ril Dharach)
L:1/8
Q:180
M:4/4
R:reel
K:D
E|FEDF E[BB,][BB,]2|DEFA BAFA|d2 fd d2ed|B2dB AFEF|
FEDF E[BB,][BB,]2|DEFA BAFA|dfef fedB|AFEF D2D:|
A|d2 fd Adfd|adfd eB B2|dfBd Ad FA|EFAc BFAB|
d2fd Adfd|adfd eB B2|dfef fedB|AFEF D2D:|

%%%

